common/resources/fonts/svg/arrow-next.svg

<?xml version="1.0" encoding="UTF-8" standalone="no"?>
<svg width="1024px" height="1024px" viewBox="0 0 1024 1024" version="1.1" xmlns="http://www.w3.org/2000/svg" xmlns:xlink="http://www.w3.org/1999/xlink">
    <!-- Generator: Sketch 3.7.1 (28215) - http://www.bohemiancoding.com/sketch -->
    <title>arrow-next</title>
    <desc>Created with Sketch.</desc>
    <defs></defs>
    <g id="Page-1" stroke="none" stroke-width="1" fill="none" fill-rule="evenodd">
        <g id="arrow-next" fill="#000000">
            <path d="M614.913659,855.770903 L916.342399,554.342163 C939.885867,530.800579 939.885867,492.628397 916.342399,469.084928 L614.913659,167.656188 C591.37019,144.114604 553.199892,144.114604 529.656424,167.656188 C506.112955,191.199657 506.112955,229.369955 529.656424,252.913424 L728.17174,451.42874 L150.285748,451.42874 C116.99106,451.42874 90,478.419799 90,511.714488 C90,545.009176 116.99106,572.000235 150.285748,572.000235 L728.17174,572.000235 L529.656424,770.515552 C517.885632,782.286344 512.000235,797.715728 512.000235,813.143227 C512.000235,828.570727 517.885632,844.00011 529.656424,855.770903 C553.199892,879.314371 591.37019,879.314371 614.913659,855.770903 L614.913659,855.770903 Z" id="Shape"></path>
        </g>
    </g>
</svg>

<svg width="1024" height="1024" viewBox="0 0 1024 1024">
    <path d="M614.914 855.77l301.428-301.428c23.544-23.541 23.544-61.714 0-85.257L614.914 167.656c-23.544-23.541-61.714-23.541-85.258 0-23.543 23.544-23.543 61.714 0 85.257L728.172 451.43H150.286C116.991 451.43 90 478.42 90 511.715S116.991 572 150.286 572h577.886L529.656 770.516c-11.77 11.77-17.656 27.2-17.656 42.627 0 15.428 5.886 30.857 17.656 42.628 23.544 23.543 61.714 23.543 85.258 0z" fill-rule="evenodd"/>
</svg>
